X: 39902
T: Thoir A-null Ailean Thugam
R: reel
M: 4/4
K: Adorian
|:eeef edBd|dddA defd|eeef edBd|AABd e2 ee:|
|:e2 a2 ee e2|effe eddd|e2 a2 ee e2|fddd e2 ed:|

